X: 1
T: Blue Stocking, The
M: 6/8
L: 1/8
R: jig
K: Gmaj
|: B/c/ | d2d dgd | B2B BdB | G2G AGA | B2B B2c |
d2d dgd | B2B BdB | G2G AGA | BGG G2 :|
|: B/c/ | dBg ecg | dBg ecg | ded dcB | BAA A2B/c/ |
dBg ecg | dBg ecg | d>ed cBA | B>GG G2 :|
